assets/img/braze_icons/flash-off.svg

<svg fill="none" height="24" viewBox="0 0 24 24" width="24" xmlns="http://www.w3.org/2000/svg"><g fill="#801ed7"><path clip-rule="evenodd" d="m3.70711 2.29289c-.39053-.39052-1.02369-.39052-1.41422 0-.39052.39053-.39052 1.02369 0 1.41422l4.35427 4.35426-3.34485 4.01383c-.15432.1851-.31063.3726-.42443.5374-.10762.1558-.30413.4622-.3102.8648-.00696.461.19846.8995.55703 1.1893.31322.2531.67438.2983.86299.3154.19943.018.44353.018.68453.0179h6.19497l-.8595 6.876c-.05506.4405.1869.8646.5941 1.0413.4072.1768.8822.0639 1.1664-.2771l4.299-5.1588 4.2257 4.2257c.3905.3905 1.0237.3905 1.4142 0s.3905-1.0237 0-1.4142c-6-6-11.99997-11.99998-17.99999-18.00001z" fill-rule="evenodd"/><path d="m18.6385 14.3959 2.0592-2.471c.1543-.1851.3106-.3726.4244-.5374.1076-.1558.3041-.4622.3102-.8648.0069-.461-.1985-.89956-.557-1.18932-.3133-.25311-.6744-.29829-.863-.31536-.1995-.01806-.4436-.01801-.6846-.01797l-6.085.00001z"/><path d="m13.145 8.90234.8473-6.77825c.055-.4405-.1869-.86457-.5941-1.04134-.4072-.176764-.8822-.06391-1.1664.27712l-3.01333 3.61596z"/></g></svg>

<svg width="24" height="24" viewBox="0 0 24 24" fill="none" xmlns="http://www.w3.org/2000/svg">
<path fill-rule="evenodd" clip-rule="evenodd" d="M3.70711 2.29289C3.31658 1.90237 2.68342 1.90237 2.29289 2.29289C1.90237 2.68342 1.90237 3.31658 2.29289 3.70711L6.64716 8.06137L3.30231 12.0752C3.14799 12.2603 2.99168 12.4478 2.87788 12.6126C2.77026 12.7684 2.57375 13.0748 2.56768 13.4774C2.56072 13.9384 2.76614 14.3769 3.12471 14.6667C3.43793 14.9198 3.79909 14.965 3.9877 14.9821C4.18713 15.0001 4.43123 15.0001 4.67223 15L10.8672 15L10.0077 21.876C9.95264 22.3165 10.1946 22.7406 10.6018 22.9173C11.009 23.0941 11.484 22.9812 11.7682 22.6402L16.0672 17.4814L20.2929 21.7071C20.6834 22.0976 21.3166 22.0976 21.7071 21.7071C22.0976 21.3166 22.0976 20.6834 21.7071 20.2929C15.7071 14.2929 9.70713 8.29292 3.70711 2.29289Z" fill="#801ED7"/>
<path d="M18.6385 14.3959L20.6977 11.9249C20.852 11.7398 21.0083 11.5523 21.1221 11.3875C21.2297 11.2317 21.4262 10.9253 21.4323 10.5227C21.4392 10.0617 21.2338 9.62314 20.8753 9.33338C20.562 9.08027 20.2009 9.03509 20.0123 9.01802C19.8128 8.99996 19.5687 9.00001 19.3277 9.00005L13.2427 9.00006L18.6385 14.3959Z" fill="#801ED7"/>
<path d="M13.145 8.90234L13.9923 2.12409C14.0473 1.68359 13.8054 1.25952 13.3982 1.08275C12.991 0.905986 12.516 1.01884 12.2318 1.35987L9.21847 4.97583L13.145 8.90234Z" fill="#801ED7"/>
</svg>
